X: 1
T: Rakish Paddy
Z: Hiroyuki Yamada
R: reel
M: 4/4
L: 1/8
N: "Variation" is an additional part which usually comes first
Z: Contributed 20040423021551 by Hiroyuki Yamada slainte_mha@infoseek.jp
K: Dmix
c3 B c2 AB | cBAG EG G2 | Add^c defe | dcAG FGAB |
c3 B c2 AB | cBAG EFGE | DEFG ABcA |1 dcAG FGAB:|2 dcAG FD D2 ||
eg g2 ag g2 | eg g2 ed^cd | ea a2 bgag | eaag ed^cd |
eg g2 ag g2 | f2 fe defg | afge fde^c |1 dcAG FD D2:|2 dcAG FGAB ||
